packages/sources/assets/src/assets/flag-tl.svg

<svg width="28" height="20" viewBox="0 0 28 20" fill="none" xmlns="http://www.w3.org/2000/svg">
<rect width="28" height="20" rx="2" fill="white"/>
<mask id="mask0_503_3678" style="mask-type:alpha" maskUnits="userSpaceOnUse" x="0" y="0" width="28" height="20">
<rect width="28" height="20" rx="2" fill="white"/>
</mask>
<g mask="url(#mask0_503_3678)">
<rect width="28" height="20" fill="#FF323E"/>
<path fill-rule="evenodd" clip-rule="evenodd" d="M0 0L17.3333 10L0 20V0Z" fill="#FFCC51"/>
<path fill-rule="evenodd" clip-rule="evenodd" d="M0 0L12 10L0 20V0Z" fill="#262626"/>
<path fill-rule="evenodd" clip-rule="evenodd" d="M5.94391 10.8244L5.05963 12.7633L4.5978 10.6829L2.48049 10.4411L4.31639 9.35895L3.8921 7.27053L5.48857 8.68218L7.34366 7.6333L6.49444 9.58787L8.06524 11.028L5.94391 10.8244Z" fill="white"/>
</g>
</svg>

<svg width="28" height="20" fill="none" xmlns="http://www.w3.org/2000/svg"><rect width="28" height="20" rx="2" fill="#fff"/><mask id="a" style="mask-type:alpha" maskUnits="userSpaceOnUse" x="0" y="0" width="28" height="20"><rect width="28" height="20" rx="2" fill="#fff"/></mask><g mask="url(#a)"><path fill="#FF323E" d="M0 0h28v20H0z"/><path fill-rule="evenodd" clip-rule="evenodd" d="m0 0 17.333 10L0 20V0Z" fill="#FFCC51"/><path fill-rule="evenodd" clip-rule="evenodd" d="m0 0 12 10L0 20V0Z" fill="#262626"/><path fill-rule="evenodd" clip-rule="evenodd" d="m5.944 10.824-.884 1.94-.462-2.081-2.118-.242L4.316 9.36l-.424-2.088 1.598 1.41 1.855-1.049-.85 1.955 1.571 1.44-2.121-.204Z" fill="#fff"/></g></svg>
